X:571
L:1/8
Q:1/4=100
M:4/4
K:Eb
 (EG) |"Eb" B3 =A cB AB | G6 B2 |"Ab" c2 e2 d2 c2 |"Eb" B4 z2 (EG) | B3 =A cB AB | 
 G2"^(Ab)" A2 B2"Ab" c2 |"Eb" B3 E G2"Bb7" F2 |"Eb" E4 z || e e>d |"Ab" c4- ce d>c |"Eb" B6 E>F | 
 GG G>G cB G>E |"Bb7" F4 z E G>B |"Eb" e4- ed c>e | B6 E>F | G>G GG B>G"Bb7" F>E |"Eb" E4 z2 |]

